X: 736
T: Ey Şehinşah-ı
C: Yusuf Çelebi (Tiznam)
O: Turkey
F: http://compmusic.upf.edu/node/140
N: ussak--ilahi--sofyan--ey_sehinsah-i--tiznam_yusuf_celebi
N: makam= ussak
N: form= ilahi
N: usul= sofyan = 4/4
M: 4/4
L: 1/16
K: C _2/4B   
Q: 1/4=66
%%MIDI tuningsystem comma53
G2A4G2 d2cd e2dc  | z2_1/4Bc B2c2 B4 A4  | \
w:   |   | 
G4 A4 A3/2c/_1/4BA A4  | 
w:   | 
G2A2 G2^F2 A8  | z2GA G2A2 G4 ^F4  | \
w:   |   | 
^FEFG F2A2 AGFE D2A2  | 
w:   | 
G2A2 G2^F2 G4 A4  | A8 A3/2c/_1/4BA A4  | \
w:   |   | 
z2GA G2A_1/4B AG2^F F4  | 
w:   | 
G2A2 G2^F2 G4 A4  | A4 d2d2 d4 z4  | \
w:   |   | 
c2d2 c2c2 d4 e4  | z2cd c2d2 fefg fed2  | 
w:   |   | 
e2d2 cded d4 z4  | c2d2 c2_1/4B2 c3d c2d2  | \
w:   |   | 
z2e2 d2c2 _1/4B2cB A3/2c/BA  | 
w:   | 
A8 G3/2^F/GA G2F2  | E4 A2A2 A8  | A4 _1/4B3/2A/B2 z2G4c2  | \
w:   |   |   | 
_1/4B2cB A2B2 A2G2 ^FGAG  | 
w:   | 
G2c2 d2c_1/4B c2z2 BcB2  | cdc2 d2d2 c_1/4Bz2 AcB2  | 
w:   |   | 
c2_1/4B4A4G4A4A12z4z2 d4 e2e8e2 e4 g2^f2 gfe4d4e3dde2dc3/2B/  | 
w:   | 
c2d2 e2d4g2 ^fee4z2 A4 A2G4d2  | d2e2 d2^cd edd6  | 
w:   |   | 
z2c2 d2c4d4e4z2 cdc2 d2fe fgfe  | \
w:   | 
d2e2 d2^cd edd4z4=c2 d2c2 c2d4e4z2 ded2 e2fe fgfe  | 
w:   | 
d2d2 cdc2 ded2 e2d2  | c_1/4Bc2 d2c2 B2c3dc2  | \
w:   |   | 
d2z2 _1/4BcB2 c2d4e2  | 
w:   | 
f2g2 f2e2 d2d2 c_1/4Be2  | dcc2 d2c2 _1/4B2c3dc2  | \
w:   |   | 
d2z2 e2d2 c2_1/4B2 cBA3/2c/  | 
w:   | 
_1/4BAA8G3/2F/ GAG2  | F2E4A2 A2A4z4A4c2 _1/4B3/2A/B2 z2G4c2 B2cB A2B2 A2G2  | 
w:   |   | 
^FGAG G2c2 d2c_1/4B c2z2  | _1/4BcB2 cdc2 d2c2 BAB2  | 
w:   |   | 
Ac_1/4B2 c2B4A4G2  | A4 z2|
w:   |   | 


